X:616
T: Shanhua tuyanfenwaixiang
N: C2134
O: China,Hubei Yicheng
S: I, 369]
R: Haozi, Tiange, Hayangchaoge, Tiandong diao]
M: 2/4
L: 1/16
K: F
c8
G2G2G2AG | F6D2 | A2c2d2ed | c8 |
F2F4G2 | d2edc2A2 | G2GAG2F2 | F2FDC4 |
A2c2d2d2 | c8 | A2AcA2FD | F8 |
F2F4G2 | d2edc4 | G2AcG2F2 | G2D2F4 |
F2F4G2 | A2d4c2 | A2A2d2d2 | c8 |
F2F4G2 | d2edc4 | G2GAG2F2 | G2D2C4 |
d3Ac4 | d2d4c2 | A2c2G2AG | F8 |
F2F4G2 | d2edc4 | G2AcG2F2 | G2D2F4

@@@ Tune index: 7171
